src/assets/img/exchanges/mexc-logo.svg

<svg viewBox="0 0 167 21" fill="none" xmlns="http://www.w3.org/2000/svg">
<path d="M32.6678 14.4012L25.4881 1.94716C23.9141 -0.648575 20.0757 -0.67619 18.5569 2.05761L11.0183 15.0087C9.60992 17.3835 11.3496 20.3658 14.1663 20.3658H29.2712C32.1155 20.3658 34.2418 17.3006 32.6678 14.4012Z" fill="#00B897"/>
<path d="M22.3124 15.3681L21.8706 14.5949C21.4564 13.8769 20.5451 12.3305 20.5451 12.3305L14.47 1.78198C12.896 -0.565226 9.16811 -0.758526 7.5941 2.19619L0.524876 14.4292C-0.938674 16.9973 0.801017 20.3386 3.97665 20.3663H29.216C25.3224 20.3939 24.0798 18.378 22.3124 15.3681Z" fill="#76FCB2"/>
<path d="M22.3124 15.3681L21.8706 14.5949C21.4564 13.8769 20.5451 12.3305 20.5451 12.3305L16.6239 5.4267L10.9906 15.0365C9.58229 17.4113 11.322 20.3936 14.1387 20.3936H29.216C25.2948 20.366 24.0797 18.3781 22.3124 15.3681Z" fill="url(#paint0_linear_36_7)"/>
<path d="M165.813 19.3997C164.791 19.3997 163.99 19.1788 163.383 18.7922C162.747 18.378 162.416 17.7704 162.416 16.942V4.90225H164.018C164.598 4.90225 165.095 5.37169 165.095 5.9792V16.583C165.095 16.6107 165.095 17.1077 165.509 17.5219C165.757 17.7704 166.061 17.9085 166.475 17.9085H166.779C166.89 17.9085 167 18.019 167 18.1294V19.4273L165.813 19.3997Z" fill="#00B897"/>
<path d="M131.295 19.3988C129.638 19.3988 128.285 18.957 127.263 18.0733C126.739 17.6315 126.38 17.1344 126.159 16.5821C125.938 16.0299 125.827 15.229 125.827 14.1521C125.827 13.1028 125.938 12.2743 126.159 11.722C126.352 11.1974 126.711 10.7279 127.236 10.2861C128.257 9.40249 129.61 8.96066 131.267 8.96066C132.924 8.96066 134.277 9.40249 135.299 10.2861C135.824 10.7279 136.183 11.225 136.376 11.722C136.597 12.3019 136.707 13.1028 136.707 14.1521C136.707 15.229 136.597 16.0299 136.376 16.5821C136.155 17.1344 135.796 17.6315 135.271 18.0733C134.305 18.957 132.952 19.3988 131.295 19.3988ZM131.295 10.4794C129.472 10.4794 128.561 11.722 128.561 14.1797C128.561 16.665 129.472 17.9076 131.295 17.9076C133.117 17.9076 134.029 16.665 134.029 14.2073C134.029 11.722 133.09 10.4794 131.295 10.4794Z" fill="#00B897"/>
<path d="M142.727 19.3997C141.291 19.3997 139.966 19.0131 138.834 18.2675C138.723 18.157 138.502 18.019 138.226 17.8533C138.171 17.8257 138.116 17.7428 138.116 17.66V4.90225H139.745C140.325 4.90225 140.822 5.3993 140.822 5.9792V9.70711L141.319 9.43097C141.899 9.12722 142.672 8.98915 143.666 8.98915C145.406 8.98915 146.731 9.51381 147.615 10.5355C148.388 11.4468 148.775 12.6618 148.775 14.153C148.775 15.6442 148.333 16.8592 147.449 17.7428C146.427 18.8474 144.826 19.3997 142.727 19.3997ZM143.003 10.4803C142.396 10.4803 141.705 10.7012 140.932 11.1707L140.822 11.2259V17.2182L140.932 17.301C141.54 17.6876 142.258 17.8809 143.003 17.8809C143.997 17.8809 144.771 17.4667 145.295 16.6383C145.737 15.9755 145.986 15.1195 145.986 14.153C145.986 11.7229 144.964 10.4803 143.003 10.4803Z" fill="#00B897"/>
<path d="M155.154 19.3712C152.116 19.3712 150.211 17.383 150.211 14.1521C150.211 10.9489 152.088 8.96066 155.098 8.96066C156.258 8.96066 157.252 9.26442 158.053 9.84432L158.219 9.95477V9.15396H160.345C160.483 9.15396 160.566 9.26442 160.566 9.37487V19.1779H158.191V18.2942L158.025 18.4323C157.363 19.0398 156.313 19.3712 155.154 19.3712ZM155.706 10.7279C153.8 10.7279 152.668 12.1915 152.668 14.1521C152.668 16.1127 153.8 17.6315 155.706 17.6315C156.313 17.6315 157.363 17.5763 158.191 16.7478L158.219 16.7202V11.6944L158.191 11.6668C157.611 11.0041 156.755 10.7279 155.706 10.7279Z" fill="#00B897"/>
<path d="M57.0404 19.2612V4.87422H68.9973V5.78549C68.9973 6.50345 68.4174 7.08335 67.6995 7.08335H60.0227V10.9493H67.6995V13.1585H60.0227V17.0244H67.6995C68.4174 17.0244 68.9973 17.6043 68.9973 18.3223V19.2336L57.0404 19.2612Z" fill="white"/>
<path d="M86.1734 4.87422H83.3567C82.832 4.87422 82.3626 5.09513 82.0312 5.50934L78.6347 9.78954L75.2381 5.53696C74.9068 5.12275 74.4373 4.90183 73.9127 4.90183H71.096L76.8121 12.0815L71.096 19.2612H73.9127C74.4373 19.2612 74.9068 19.0403 75.2381 18.6261L78.6347 14.3735L82.0588 18.6537C82.3902 19.0403 82.8597 19.2888 83.3843 19.2888H86.201L80.4848 12.1091L86.1734 4.87422Z" fill="white"/>
<path d="M47.6792 17.7435L51.6004 10.8952V19.2347H54.5828V4.84767H52.7326C52.1527 4.84767 51.6004 5.15142 51.3243 5.67609L46.6299 14.2365L41.9355 5.67609C41.6593 5.15142 41.107 4.84767 40.5271 4.84767H38.677V19.2347H41.6593V10.8952L45.5805 17.7435H47.6792Z" fill="white"/>
<path d="M93.9605 19.427C89.8184 19.4822 86.4495 16.2237 86.4219 12.0816C86.4219 9.81721 87.1122 7.93944 88.4101 6.64158C89.708 5.37133 91.5857 4.68097 93.8225 4.68097C96.4458 4.68097 98.5169 5.59224 100.008 7.35955L99.0692 8.16036C98.4893 8.65741 97.6332 8.68503 96.9981 8.21558C96.1697 7.58045 95.1203 7.2767 93.9329 7.2767C91.0058 7.2767 89.2661 9.04401 89.2661 12.0264C89.2661 15.0363 91.061 16.8865 93.9329 16.8865C95.1479 16.8865 96.1697 16.5551 96.9981 15.9476C97.6056 15.4781 98.4616 15.5058 99.0692 16.0028L100.008 16.8036C98.5169 18.5433 96.5287 19.427 93.9605 19.427Z" fill="white"/>
<path d="M112.324 19.427C107.685 19.427 104.813 16.6104 104.813 12.0816C104.813 7.55293 107.685 4.73629 112.269 4.73629C114.478 4.73629 116.328 5.37141 117.764 6.66928L117.074 7.44248C116.77 7.77385 116.328 7.96715 115.886 7.96715C115.638 7.96715 115.389 7.91192 115.168 7.80146C114.312 7.35963 113.318 7.13872 112.269 7.13872C109.286 7.13872 107.436 9.0441 107.436 12.1093C107.436 15.202 109.369 17.1074 112.462 17.1074C113.953 17.1074 115.113 16.8313 115.969 16.2238L116.024 16.1962V13.2414H112.738V12.2749C112.738 11.557 113.318 10.9771 114.036 10.9771H118.095C118.206 10.9771 118.316 11.0875 118.316 11.198V17.5769C116.908 18.7919 114.892 19.427 112.324 19.427Z" fill="#00B897"/>
<path d="M123.646 19.3997C122.624 19.3997 121.823 19.1788 121.216 18.7922C120.581 18.378 120.249 17.7704 120.249 16.942V4.90225H121.851C122.431 4.90225 122.928 5.37169 122.928 5.9792V16.583C122.928 16.6107 122.928 17.1077 123.342 17.5219C123.591 17.7704 123.894 17.9085 124.308 17.9085H124.612C124.723 17.9085 124.833 18.019 124.833 18.1294V19.4273L123.646 19.3997Z" fill="#00B897"/>
<defs>
<linearGradient id="paint0_linear_36_7" x1="-13.4334" y1="7.14463" x2="12.3898" y2="69.6061" gradientUnits="userSpaceOnUse">
<stop stop-color="#53E57A" stop-opacity="0"/>
<stop offset="1" stop-color="#00A977"/>
</linearGradient>
</defs>
</svg>

<svg viewBox="0 0 167 21" fill="none" xmlns="http://www.w3.org/2000/svg"><path d="m32.668 14.401-7.18-12.454c-1.574-2.596-5.412-2.623-6.931.11L11.018 15.01c-1.408 2.375.332 5.357 3.148 5.357h15.105c2.844 0 4.97-3.065 3.397-5.965Z" fill="#00B897"/><path d="m22.312 15.368-.441-.773c-.415-.718-1.326-2.264-1.326-2.264L14.47 1.782c-1.574-2.347-5.302-2.54-6.876.414L.524 14.43c-1.463 2.568.277 5.91 3.453 5.937h25.239c-3.894.028-5.136-1.988-6.904-4.998Z" fill="#76FCB2"/><path d="m22.312 15.368-.441-.773c-.415-.718-1.326-2.264-1.326-2.264l-3.921-6.904-5.633 9.61c-1.409 2.374.331 5.357 3.148 5.357h15.077c-3.921-.028-5.136-2.016-6.904-5.026Z" fill="url(#a)"/><path d="M165.813 19.4c-1.022 0-1.823-.221-2.43-.608-.636-.414-.967-1.022-.967-1.85V4.902h1.602c.58 0 1.077.47 1.077 1.077v10.604c0 .028 0 .525.414.939.248.248.552.387.966.387h.304c.111 0 .221.11.221.22v1.298l-1.187-.027ZM131.295 19.399c-1.657 0-3.01-.442-4.032-1.326-.524-.442-.883-.939-1.104-1.49-.221-.553-.332-1.354-.332-2.43 0-1.05.111-1.879.332-2.431.193-.525.552-.994 1.077-1.436 1.021-.884 2.374-1.325 4.031-1.325 1.657 0 3.01.441 4.032 1.325.525.442.884.939 1.077 1.436.221.58.331 1.38.331 2.43 0 1.077-.11 1.878-.331 2.43-.221.552-.58 1.05-1.105 1.491-.966.884-2.319 1.326-3.976 1.326Zm0-8.92c-1.823 0-2.734 1.243-2.734 3.7 0 2.486.911 3.729 2.734 3.729 1.822 0 2.734-1.243 2.734-3.7 0-2.486-.939-3.729-2.734-3.729ZM142.727 19.4c-1.436 0-2.761-.387-3.893-1.133-.111-.11-.332-.248-.608-.414a.233.233 0 0 1-.11-.193V4.902h1.629c.58 0 1.077.497 1.077 1.077v3.728l.497-.276c.58-.304 1.353-.442 2.347-.442 1.74 0 3.065.525 3.949 1.546.773.912 1.16 2.127 1.16 3.618s-.442 2.706-1.326 3.59c-1.022 1.104-2.623 1.657-4.722 1.657Zm.276-8.92c-.607 0-1.298.221-2.071.69l-.11.056v5.992l.11.083c.608.387 1.326.58 2.071.58.994 0 1.768-.414 2.292-1.243.442-.663.691-1.519.691-2.485 0-2.43-1.022-3.673-2.983-3.673ZM155.154 19.371c-3.038 0-4.943-1.988-4.943-5.219 0-3.203 1.877-5.191 4.887-5.191 1.16 0 2.154.303 2.955.883l.166.11v-.8h2.126c.138 0 .221.11.221.22v9.804h-2.375v-.884l-.166.138c-.662.608-1.712.94-2.871.94Zm.552-8.643c-1.906 0-3.038 1.463-3.038 3.424 0 1.96 1.132 3.48 3.038 3.48.607 0 1.657-.056 2.485-.884l.028-.028v-5.026l-.028-.027c-.58-.663-1.436-.94-2.485-.94Z" fill="#00B897"/><path d="M57.04 19.261V4.874h11.957v.911c0 .718-.58 1.298-1.297 1.298h-7.677v3.866h7.676v2.21h-7.676v3.865h7.676c.718 0 1.298.58 1.298 1.298v.912l-11.957.027ZM86.173 4.874h-2.816c-.525 0-.994.221-1.326.635l-3.396 4.28-3.397-4.252a1.661 1.661 0 0 0-1.325-.635h-2.817l5.716 7.18-5.716 7.18h2.817c.524 0 .994-.222 1.325-.636l3.397-4.253 3.424 4.28c.331.387.8.636 1.325.636h2.817l-5.716-7.18 5.688-7.235ZM47.68 17.744l3.92-6.849v8.34h2.983V4.848h-1.85c-.58 0-1.133.303-1.409.828l-4.694 8.56-4.695-8.56a1.582 1.582 0 0 0-1.408-.828h-1.85v14.387h2.982v-8.34l3.922 6.849h2.098ZM93.96 19.427c-4.142.055-7.51-3.203-7.538-7.345 0-2.265.69-4.143 1.988-5.44 1.298-1.27 3.176-1.961 5.413-1.961 2.623 0 4.694.911 6.185 2.679l-.939.8a1.66 1.66 0 0 1-2.07.056c-.83-.636-1.879-.94-3.066-.94-2.927 0-4.667 1.768-4.667 4.75 0 3.01 1.795 4.86 4.667 4.86 1.215 0 2.237-.33 3.065-.938.608-.47 1.464-.442 2.071.055l.939.8c-1.491 1.74-3.48 2.624-6.047 2.624Z" fill="#fff"/><path d="M112.324 19.427c-4.639 0-7.511-2.817-7.511-7.345 0-4.53 2.872-7.346 7.456-7.346 2.209 0 4.059.635 5.495 1.933l-.69.773a1.613 1.613 0 0 1-1.906.359c-.856-.441-1.85-.662-2.899-.662-2.983 0-4.833 1.905-4.833 4.97 0 3.093 1.933 4.998 5.026 4.998 1.491 0 2.651-.276 3.507-.883l.055-.028v-2.955h-3.286v-.966c0-.718.58-1.298 1.298-1.298h4.059c.111 0 .221.11.221.221v6.379c-1.408 1.215-3.424 1.85-5.992 1.85ZM123.646 19.4c-1.022 0-1.823-.221-2.43-.608-.635-.414-.967-1.022-.967-1.85V4.902h1.602c.58 0 1.077.47 1.077 1.077v10.604c0 .028 0 .525.414.939.249.248.552.387.966.387h.304c.111 0 .221.11.221.22v1.298l-1.187-.027Z" fill="#00B897"/><defs><linearGradient id="a" x1="-13.433" y1="7.145" x2="12.39" y2="69.606" gradientUnits="userSpaceOnUse"><stop stop-color="#53E57A" stop-opacity="0"/><stop offset="1" stop-color="#00A977"/></linearGradient></defs></svg>
